X: 118
T: Hora Hasor
O: Israel
M: 2/4
L: 1/8
Q: 1/4=150
K: Ddor
|:CCG,G,|CCG,2   |A,A,2B,  |C2D2 |\
  CCG,G,|CCG,2   |_B,B,A,A,|D2D2 ::
  CCDD  |A,A,B,B,|B,3B,    |CDE2 |CCDD|A,A,B,B,|G2FE|C4 :|



